X:18475
T:Waltz. CJF.135
M:3/8
L:1/16
Q:50
S: C.J.Fox MS, 1829/33, Beverley,E.Yorks.
R:Waltz
O:England
A:East Yorkshire
B:Kidson Coll.Mitchell Lib.M1805
Z:P J Headford 2000
K:G
dc|Bdgbaf|gfedcB|e2c2e2|d4(dB)|GBdBgd|\
bagfed|c2A2d2|G4:||:!(bg)|
c'bagfe|dedcBA|BGBdgb|a4ab|c'bagfe|dfdcBA|Bdgbaf|{a}g4:||


